X:17
T:City Assembly. Tho24CDs1792.17, The
M:2/4
Q:1/4=110
L:1/8
C:"89"
W: First Cu: Allemeande .|
W: 2d Cu: do the same :|
W: Lead down the middle up again & cast off :|.
W: Hands & Round :|
B:Thompson 24 CDs 1792
Z:Village Music Project, Anne Wride, 2017
K:G
|:GGBB|ddg2|dBAG|AFED|GGBB|ddg2|BdBG|DF G2 !fine!:|
|:cBcd|ca Ta2|BABc|BgTg2|(gf)(ed)|(ed)(cB)|(cB)(AG)|AF!D.C.!ED|]

